components/Common/Svg/svgs/trophy.svg

<svg
  width="40"
  height="40"
  viewBox="0 0 40 40"
  fill="none"
  xmlns="http://www.w3.org/2000/svg"
>
  <path
    d="M28.5665 6.11791V4H10.7939V6.11791C7.00462 6.38584 4 9.54994 4 13.4094C4 17.4475 7.28531 20.7264 11.317 20.7264C11.9485 20.7264 12.5673 20.6435 13.1734 20.484C14.143 21.5302 15.3614 22.3403 16.733 22.8252C17.4538 24.4838 17.4474 26.3848 16.7202 28.0434H14.9723V30.1358C13.5306 30.1358 12.3568 31.3096 12.3568 32.7513V36.4066H26.9908V32.7449C26.9908 31.3032 25.817 30.1294 24.3753 30.1294V28.037H22.6274C21.9002 26.3784 21.8938 24.4774 22.6146 22.8188C23.9862 22.334 25.2046 21.5238 26.1743 20.4776C26.7803 20.6371 27.3991 20.72 28.0306 20.72C32.0687 20.72 35.3476 17.4347 35.3476 13.403C35.3604 9.54994 32.3557 6.38584 28.5665 6.11791ZM28.4134 16.044C28.4453 15.8782 28.4708 15.7123 28.4899 15.5464C28.5027 15.4507 28.5154 15.3551 28.5218 15.2594C28.5473 14.9914 28.5601 14.7235 28.5601 14.4492V10.5451C29.8487 10.8577 30.8184 12.0187 30.8184 13.403C30.8184 14.8575 29.753 16.0695 28.3623 16.2992C28.3879 16.2226 28.4006 16.1333 28.4134 16.044ZM10.8003 10.4941V14.4492C10.7939 14.7235 10.813 14.9914 10.8386 15.2594C10.8449 15.3551 10.8577 15.4507 10.8704 15.5464C10.8896 15.7123 10.9151 15.8782 10.947 16.044C10.9661 16.1461 10.9789 16.2418 11.0044 16.3438C9.47339 16.2418 8.25496 14.9659 8.25496 13.4094C8.25496 11.923 9.36495 10.6918 10.8003 10.4941ZM11.317 19.6802C7.85944 19.6802 5.0462 16.8669 5.0462 13.4094C5.0462 10.1241 7.57876 7.42566 10.7939 7.15773V9.4415C8.78443 9.63925 7.20238 11.3425 7.20238 13.4094C7.20238 15.6102 8.98857 17.3964 11.1894 17.3964V17.0902C11.2149 17.1731 11.2532 17.2497 11.2787 17.3326C11.3361 17.4921 11.3872 17.6516 11.451 17.8111C11.502 17.9387 11.5658 18.0599 11.6232 18.1874C11.6742 18.2959 11.7253 18.4043 11.7827 18.5128C11.8465 18.634 11.9103 18.7552 11.9804 18.87C12.0442 18.9785 12.108 19.0869 12.1782 19.1954C12.2484 19.3038 12.3185 19.4186 12.3887 19.5207C12.4078 19.5398 12.4142 19.5654 12.4334 19.5845C12.0697 19.6483 11.6934 19.6802 11.317 19.6802ZM24.3881 31.1756C25.2493 31.182 25.951 31.8837 25.951 32.7449V35.3604H13.4094V32.7449C13.4094 31.8773 14.1111 31.1756 14.9787 31.1756H24.3881ZM23.1377 29.0896H23.3419V30.1358H16.0185V29.0896H16.2163H23.1377ZM17.9769 23.1696C18.5319 23.2781 19.0997 23.3355 19.6802 23.3355C20.2607 23.3355 20.8285 23.2781 21.3834 23.1696C20.8922 24.7581 20.9241 26.4805 21.4983 28.0434H17.8621C18.4362 26.4805 18.4681 24.7581 17.9769 23.1696ZM26.6846 17.9323C26.6144 18.0726 26.5443 18.2066 26.4677 18.3405C26.423 18.4171 26.3784 18.4873 26.3337 18.5574C26.2508 18.6914 26.1679 18.819 26.0849 18.9466C26.0339 19.0167 25.9829 19.0805 25.9318 19.1507C25.8362 19.2719 25.7469 19.3995 25.6448 19.5143C24.2031 21.2112 22.066 22.2893 19.6738 22.2893C17.2816 22.2893 15.1445 21.2112 13.7028 19.5207C13.6008 19.3995 13.5051 19.2719 13.4094 19.1507C13.3584 19.0869 13.3073 19.0231 13.2627 18.953C13.1734 18.8254 13.0904 18.6914 13.0075 18.5638C12.9628 18.4936 12.9182 18.4235 12.8799 18.3469C12.8034 18.213 12.7332 18.0726 12.663 17.9387C12.6247 17.8621 12.5865 17.7856 12.5546 17.709C12.4908 17.5687 12.4334 17.4283 12.3759 17.288C12.3441 17.205 12.3122 17.1157 12.2803 17.0328C12.2292 16.8925 12.1846 16.7521 12.1463 16.6118C12.1208 16.5097 12.0953 16.414 12.0697 16.3119C12.0379 16.1844 12.006 16.0504 11.9804 15.9164C11.9549 15.7825 11.9358 15.6549 11.9166 15.5209C11.9039 15.4125 11.8847 15.3104 11.872 15.202C11.8465 14.9595 11.8337 14.7108 11.8337 14.4556V6.09239V5.0462H11.8401H27.5203V6.09239V14.4556C27.5203 14.7044 27.5075 14.9532 27.482 15.202C27.4692 15.3104 27.4565 15.4189 27.4374 15.5209C27.4182 15.6549 27.3991 15.7888 27.3736 15.9164C27.348 16.0504 27.3161 16.178 27.2842 16.3119C27.2587 16.414 27.2332 16.5161 27.2077 16.6118C27.1694 16.7521 27.1184 16.8925 27.0737 17.0264C27.0418 17.1094 27.0099 17.1987 26.978 17.2816C26.9206 17.4219 26.8632 17.5623 26.7994 17.7026C26.7612 17.7792 26.7229 17.8557 26.6846 17.9323ZM28.0434 19.6802C27.667 19.6802 27.297 19.6483 26.927 19.5845C26.9398 19.5654 26.9525 19.5462 26.9653 19.5207C27.0418 19.4123 27.1056 19.3038 27.1758 19.1954C27.246 19.0869 27.3098 18.9848 27.3736 18.87C27.4437 18.7488 27.5075 18.634 27.5713 18.5128C27.6287 18.4043 27.6798 18.2959 27.7308 18.1874C27.7882 18.0599 27.8456 17.9387 27.903 17.8111C27.9604 17.6707 28.0051 17.5304 28.0561 17.39C30.174 17.2943 31.8645 15.5464 31.8645 13.4094C31.8645 11.4446 30.4356 9.81149 28.5665 9.48615V7.15773C31.7816 7.42566 34.3142 10.1241 34.3142 13.4094C34.3142 16.8669 31.5009 19.6802 28.0434 19.6802Z"
    fill="black"
  ></path>
  <path
    d="M16.0306 32.7446H14.9844V33.7908H16.0306V32.7446Z"
    fill="black"
  ></path>
  <path
    d="M18.1126 32.7446H17.0664V33.7908H18.1126V32.7446Z"
    fill="black"
  ></path>
  <path
    d="M20.2024 32.7446H19.1562V33.7908H20.2024V32.7446Z"
    fill="black"
  ></path>
  <path
    d="M22.2962 32.7449H21.25V33.7911H22.2962V32.7449Z"
    fill="black"
  ></path>
  <path
    d="M24.386 32.7446H23.3398V33.7908H24.386V32.7446Z"
    fill="black"
  ></path>
  <path
    d="M26.5148 10.8321H21.6857L20.1929 6.23901L18.7002 10.8321H13.8711L17.7752 13.6708L16.2952 18.2639L20.1993 15.4251L24.1034 18.2639L22.6107 13.6708L26.5148 10.8321ZM20.1993 14.1365L18.2792 15.5336L19.0128 13.2753L17.0926 11.8783H19.4657L20.1993 9.62001L20.9329 11.8783H23.306L21.3858 13.2753L22.1195 15.5336L20.1993 14.1365Z"
    fill="black"
  ></path>
</svg>

<svg width="40" height="40" viewBox="0 0 40 40" fill="none" xmlns="http://www.w3.org/2000/svg"><path d="M28.567 6.118V4H10.794v2.118C7.004 6.386 4 9.55 4 13.409c0 4.039 3.285 7.317 7.317 7.317.631 0 1.25-.082 1.856-.242a8.9 8.9 0 0 0 3.56 2.341 6.54 6.54 0 0 1-.013 5.218h-1.748v2.093a2.62 2.62 0 0 0-2.615 2.615v3.656H26.99v-3.662a2.62 2.62 0 0 0-2.616-2.616v-2.092h-1.748a6.54 6.54 0 0 1-.012-5.218 8.9 8.9 0 0 0 3.56-2.341c.605.16 1.224.242 1.856.242 4.038 0 7.317-3.285 7.317-7.317.012-3.853-2.992-7.017-6.781-7.285Zm-.154 9.926c.032-.166.058-.332.077-.498a8.515 8.515 0 0 0 .07-1.097v-3.904a2.954 2.954 0 0 1 2.258 2.858 2.942 2.942 0 0 1-2.456 2.896c.026-.076.039-.166.051-.255ZM10.8 10.494v3.955c-.006.274.013.542.039.81.006.096.019.192.031.287.02.166.045.332.077.498.02.102.032.198.057.3a2.948 2.948 0 0 1-2.749-2.935 2.95 2.95 0 0 1 2.545-2.915Zm.517 9.186a6.278 6.278 0 0 1-6.27-6.27 6.279 6.279 0 0 1 5.747-6.252V9.44a3.994 3.994 0 0 0-3.592 3.968c0 2.201 1.787 3.987 3.987 3.987v-.306c.026.083.064.16.09.243.057.16.108.319.172.478.051.128.115.249.172.376a7.618 7.618 0 0 0 .357.683c.064.108.128.217.198.325.07.109.14.224.21.326.02.019.026.044.045.063-.363.064-.74.096-1.116.096Zm13.071 11.496a1.575 1.575 0 0 1 1.563 1.569v2.615H13.409v-2.615c0-.868.702-1.57 1.57-1.57h9.41Zm-1.25-2.086h.204v1.046h-7.323V29.09h7.119Zm-5.161-5.92a8.858 8.858 0 0 0 3.406 0 7.634 7.634 0 0 0 .115 4.873h-3.636a7.634 7.634 0 0 0 .115-4.873Zm8.708-5.238c-.07.14-.14.275-.217.409-.045.076-.09.146-.134.216a20.14 20.14 0 0 1-.25.39c-.05.07-.101.134-.152.204-.096.12-.185.248-.287.363a7.813 7.813 0 0 1-5.971 2.775 7.829 7.829 0 0 1-5.971-2.768c-.102-.122-.198-.25-.294-.37-.05-.064-.102-.128-.146-.198-.09-.128-.173-.262-.255-.39a2.41 2.41 0 0 1-.128-.216c-.077-.134-.147-.274-.217-.408a3.716 3.716 0 0 1-.108-.23c-.064-.14-.122-.28-.18-.421-.03-.083-.063-.172-.095-.255a5.337 5.337 0 0 1-.134-.421l-.076-.3a7.327 7.327 0 0 1-.09-.396 8.58 8.58 0 0 1-.063-.395c-.013-.109-.032-.21-.045-.319a7.133 7.133 0 0 1-.038-.746v-9.41H27.52v9.41c0 .248-.012.497-.038.746-.013.108-.026.217-.045.319-.019.134-.038.268-.063.395-.026.134-.058.262-.09.396a20.18 20.18 0 0 1-.076.3c-.039.14-.09.28-.134.414l-.096.256c-.057.14-.115.28-.179.42l-.114.23Zm1.358 1.748a6.54 6.54 0 0 1-1.116-.096.56.56 0 0 0 .038-.063c.077-.109.14-.217.21-.326a10.08 10.08 0 0 0 .396-.683c.058-.108.109-.216.16-.325.057-.127.115-.248.172-.376.057-.14.102-.28.153-.421a3.99 3.99 0 0 0 3.808-3.98 3.989 3.989 0 0 0-3.297-3.924V7.158a6.28 6.28 0 0 1 5.747 6.251 6.278 6.278 0 0 1-6.27 6.271Z" fill="#000"/><path d="M16.03 32.745h-1.046v1.046h1.047v-1.046ZM18.113 32.745h-1.047v1.046h1.047v-1.046ZM20.202 32.745h-1.046v1.046h1.046v-1.046ZM22.296 32.745H21.25v1.046h1.046v-1.046ZM24.386 32.745H23.34v1.046h1.046v-1.046ZM26.515 10.832h-4.83L20.194 6.24 18.7 10.832h-4.829l3.904 2.839-1.48 4.593 3.904-2.839 3.904 2.839-1.492-4.593 3.904-2.839Zm-6.316 3.304-1.92 1.398.734-2.259-1.92-1.397h2.373l.733-2.258.734 2.258h2.373l-1.92 1.397.733 2.259-1.92-1.398Z" fill="#000"/></svg>
